X: 14
T: The Girl Who Broke My Heart
R: reel
M: 4/4
L: 1/8
K: Gmix
_Bdcd =Bdcd|: dBcA BGGF|DGG^F GABc|defd cAGF|DFFE FAdc|
dBcA BGGF|DGG^F GABc |defd cAGF|1 DGG^F GAdc:|2 DGG^F GDEF ||
|:D^F|G2Bd gdBG|F2Ac fcAF|G2Bd gdBd|c2Bd cAFA|
G2Bd gdBG|F2Ac fcAF|GABd cAGF|1 DGG^F GDEF :|2 DGG^F GAdc||